images/back_wheel.svg

<svg width="90" height="89" viewBox="0 0 90 89" fill="none" xmlns="http://www.w3.org/2000/svg">
<path d="M79.2103 72.0919C84.9228 64.522 88.3108 55.4447 88.9594 45.972C89.4049 37.1483 86.1376 27.6434 81.5335 20.2246C76.1233 11.5925 68.0397 6.38767 58.6301 2.88585C48.6371 -0.796907 38.4743 -0.0411964 28.7677 3.95023H28.6934C20.3128 7.2711 13.3007 12.4653 8.47394 20.1821C3.83809 27.6327 0.560116 37.0951 1.0481 45.9294C1.62422 54.9611 4.6991 63.6527 9.92727 71.0276C15.2314 78.4782 22.8588 83.0231 31.3349 86.1524C47.7354 92.2194 68.5914 86.1737 79.2103 72.0919ZM56.6358 80.1919C53.4886 71.8826 50.3344 63.5662 47.1731 55.2428C47.5338 54.3168 47.8839 53.3801 48.234 52.4435L50.9497 53.6781C54.5919 61.8029 58.227 69.9277 61.8551 78.0525L61.9187 78.1483C60.2291 79.0188 58.4775 79.7624 56.6782 80.3728C56.6664 80.3225 56.6523 80.2728 56.6358 80.2238V80.1919ZM8.18749 52.2625C7.99654 51.4642 7.83742 50.6553 7.69951 49.857C10.6805 48.7926 13.6402 47.7282 16.5893 46.5255C17.0062 46.3807 17.3677 46.1092 17.6236 45.7486C17.8795 45.3881 18.017 44.9564 18.017 44.5138C18.017 44.0712 17.8795 43.6396 17.6236 43.279C17.3677 42.9185 17.0062 42.6469 16.5893 42.5021C13.626 41.3313 10.6451 40.2137 7.64649 39.1493C7.77379 38.3404 7.92229 37.5315 8.10264 36.7225C8.16291 36.7608 8.22688 36.7929 8.29358 36.8183L28.4494 44.5138L8.29358 52.2093L8.18749 52.2625ZM9.39685 32.795H9.2165C9.83486 30.9937 10.583 29.24 11.4549 27.5476H11.5397L35.8328 38.4894L37.0528 41.2249L34.2628 42.2893L9.39685 32.795ZM14.9768 21.917C17.7774 23.2475 20.5992 24.546 23.4635 25.7913C23.8613 25.9891 24.311 26.0567 24.7491 25.9845C25.1872 25.9124 25.5917 25.7041 25.9057 25.3891C26.2196 25.0741 26.4271 24.6683 26.499 24.2287C26.571 23.7891 26.5036 23.338 26.3065 22.9388C25.076 20.0756 23.7924 17.255 22.4557 14.4238C23.1134 13.9341 23.7817 13.4658 24.4713 13.0188L33.2868 32.7311L13.6296 23.8861H13.5553C14.0645 23.2688 14.4782 22.5982 14.9768 21.9489V21.917ZM30.3059 10.0279C30.4544 9.964 30.5711 9.88949 30.6984 9.82562C30.8257 9.76176 30.9318 9.76176 31.0485 9.70854C31.7911 9.38923 32.5336 9.10185 33.2868 8.8464C36.4481 17.1557 39.6023 25.4649 42.7494 33.7742L41.6886 36.5842L38.9623 35.3495L28.0781 11.0177C28.8136 10.6771 29.5562 10.3578 30.3059 10.0598V10.0279ZM39.6943 7.28175C40.7551 10.2194 41.8159 13.1465 42.9616 16.0416C43.1059 16.4599 43.3766 16.8227 43.7359 17.0794C44.0953 17.3362 44.5255 17.4741 44.9666 17.4741C45.4078 17.4741 45.8379 17.3362 46.1973 17.0794C46.5566 16.8227 46.8273 16.4599 46.9716 16.0416C48.1173 13.1252 49.2099 10.1911 50.2496 7.23919C51.0664 7.34562 51.8726 7.47334 52.6789 7.633L52.6258 7.71815C50.0798 14.4521 47.5268 21.1932 44.9666 27.9414L37.2968 7.71815C38.0924 7.57978 38.888 7.43077 39.6943 7.31368V7.28175ZM65.5786 12.7207C66.2787 13.1678 66.9577 13.6361 67.626 14.1257C66.2363 17.0421 64.8997 19.9692 63.6267 22.9388C63.4296 23.338 63.3622 23.7891 63.4341 24.2287C63.5061 24.6683 63.7136 25.0741 64.0275 25.3891C64.3415 25.7041 64.746 25.9124 65.1841 25.9845C65.6222 26.0567 66.0719 25.9891 66.4697 25.7913C69.3764 24.5283 72.2548 23.212 75.1049 21.8425C75.5716 22.513 76.0172 23.1943 76.4521 23.8967L76.293 23.95L56.6358 32.795C59.5778 26.2242 62.5199 19.6534 65.4619 13.0826C65.5075 12.9752 65.5465 12.865 65.5786 12.7527V12.7207ZM78.3935 27.5476C79.2142 29.2483 79.923 31.0012 80.5151 32.795H80.4409L55.6598 42.2893L52.8698 41.2249L54.0898 38.4894L78.3935 27.5476ZM82.2443 39.16C79.2527 40.2244 76.2824 41.2887 73.3439 42.5021C72.927 42.6469 72.5655 42.9185 72.3096 43.279C72.0537 43.6396 71.9162 44.0712 71.9162 44.5138C71.9162 44.9564 72.0537 45.3881 72.3096 45.7486C72.5655 46.1092 72.927 46.3807 73.3439 46.5255C76.2824 47.6963 79.2527 48.8033 82.2443 49.8676C82.1064 50.6659 81.9473 51.4749 81.7563 52.2625L81.629 52.2093L61.4732 44.5138L81.629 36.8183H81.7457C81.9579 37.5953 82.0958 38.3936 82.2443 39.1919V39.16ZM78.3935 61.512L54.0898 50.5808C53.6866 49.6654 53.2729 48.7501 52.8698 47.8453L55.6598 46.7809L80.5257 56.2752C79.9134 58.0596 79.2015 59.8079 78.3935 61.512ZM66.4697 63.2682C66.0719 63.0705 65.6222 63.0029 65.1841 63.0751C64.746 63.1472 64.3415 63.3555 64.0275 63.6704C63.7136 63.9854 63.5061 64.3913 63.4341 64.8309C63.3622 65.2705 63.4296 65.7216 63.6267 66.1208C64.8678 69.0052 66.1727 71.8578 67.5199 74.6997C66.8622 75.1893 66.1939 75.6576 65.5043 76.1047C65.4998 76.0622 65.4998 76.0194 65.5043 75.9769C62.5552 69.4061 59.6132 62.8354 56.6782 56.2646L76.3354 65.1096H76.4521C76.0172 65.8121 75.561 66.4827 75.073 67.1532C72.2159 65.8263 69.3481 64.5313 66.4697 63.2682ZM44.2558 46.1317L43.6512 45.8656L43.3754 45.2589L43.1101 44.5457L43.3754 43.8326L43.6512 43.2259L44.2558 42.9492L44.9666 42.6831L45.6774 42.9492L46.282 43.2259L46.5472 43.8326C46.6427 44.0668 46.7276 44.3116 46.8231 44.5457C46.7276 44.7799 46.6427 45.0247 46.5472 45.2589L46.282 45.8656L45.6774 46.1317L44.9666 46.4084L44.2558 46.1317ZM62.0036 10.7623C62.0036 10.8474 61.9081 10.9113 61.8657 11.0071C58.2376 19.1248 54.6025 27.2495 50.9603 35.3814L48.2446 36.6161L47.1837 33.8061C50.345 25.4898 53.4992 17.1734 56.6464 8.85703C56.6689 8.79826 56.6867 8.73775 56.6994 8.67609C58.5176 9.23573 60.2907 9.93314 62.0036 10.7623ZM9.35441 56.2752L34.2204 46.7809L37.0104 47.8453C36.6072 48.7501 36.2041 49.6654 35.7904 50.5808L11.4973 61.512H11.4336C10.6377 59.8093 9.94338 58.0606 9.35441 56.2752ZM24.4076 76.1792C23.6969 75.7428 23.0179 75.2851 22.3496 74.8168C23.7181 71.9429 25.0441 69.0478 26.2959 66.1208C26.493 65.7216 26.5604 65.2705 26.4885 64.8309C26.4165 64.3913 26.209 63.9854 25.895 63.6704C25.5811 63.3555 25.1766 63.1472 24.7385 63.0751C24.3004 63.0029 23.8507 63.0705 23.4529 63.2682C20.5356 64.5348 17.6501 65.8653 14.7859 67.2384C14.3191 66.5678 13.863 65.876 13.4386 65.1735L13.6296 65.1096L33.2868 56.2646L24.4713 75.9769C24.4438 76.0422 24.4225 76.1099 24.4076 76.1792ZM28.0145 78.1589V78.0844C31.6567 69.9667 35.2918 61.8419 38.9198 53.7101L41.6462 52.4754C41.9963 53.4121 42.3569 54.3487 42.707 55.2747C39.5528 63.5982 36.3986 71.9145 33.2444 80.2238C33.2457 80.2486 33.2457 80.2735 33.2444 80.2983C31.4588 79.694 29.7122 78.9795 28.0145 78.1589ZM37.2437 81.4478C37.24 81.4125 37.24 81.3768 37.2437 81.3414L44.9136 61.1182C47.4737 67.8593 50.0268 74.6003 52.5728 81.3414L52.6683 81.5224C51.8726 81.7033 51.0664 81.8523 50.2496 81.98C49.1887 78.9678 48.1279 75.9876 46.9185 73.0179C46.7742 72.5997 46.5036 72.2369 46.1442 71.9802C45.7849 71.7234 45.3547 71.5854 44.9136 71.5854C44.4724 71.5854 44.0422 71.7234 43.6829 71.9802C43.3235 72.2369 43.0529 72.5997 42.9086 73.0179C41.7417 75.9769 40.6384 78.9466 39.5776 81.9375L38.5167 81.7459C38.1348 81.6714 37.6893 81.5543 37.2437 81.4478Z" stroke="white" stroke-miterlimit="10"/>
</svg>

<svg width="90" height="89" fill="none" xmlns="http://www.w3.org/2000/svg"><path d="M79.21 72.092a48.91 48.91 0 009.75-26.12c.445-8.824-2.822-18.329-7.426-25.747-5.41-8.633-13.494-13.837-22.904-17.34C48.637-.796 38.474-.04 28.768 3.95h-.075c-8.38 3.321-15.392 8.515-20.22 16.232C3.839 27.632.56 37.095 1.049 45.93a48.767 48.767 0 008.88 25.099c5.303 7.45 12.93 11.995 21.407 15.124 16.4 6.067 37.256.022 47.875-14.06zm-22.574 8.1a29211.23 29211.23 0 00-9.463-24.95c.36-.925.71-1.862 1.061-2.798l2.716 1.234c3.642 8.125 7.277 16.25 10.905 24.374l.064.096a38.325 38.325 0 01-5.24 2.225c-.013-.05-.027-.1-.043-.15v-.031zM8.187 52.262c-.19-.798-.35-1.607-.487-2.405 2.98-1.064 5.94-2.129 8.89-3.331a2.122 2.122 0 001.427-2.012 2.134 2.134 0 00-1.428-2.012 271.437 271.437 0 00-8.943-3.353c.128-.809.276-1.617.457-2.427.06.039.124.07.19.096l20.156 7.696-20.155 7.695-.107.053zm1.21-19.467h-.18a39.367 39.367 0 012.238-5.247h.085l24.293 10.941 1.22 2.736-2.79 1.064-24.866-9.494zm5.58-10.878c2.8 1.33 5.622 2.629 8.486 3.874a2.115 2.115 0 002.443-.402 2.131 2.131 0 00.4-2.45 264.787 264.787 0 00-3.85-8.515c.657-.49 1.326-.958 2.015-1.405l8.816 19.712-19.657-8.845h-.075c.51-.617.923-1.288 1.422-1.937v-.032zm15.329-11.89c.148-.063.265-.138.392-.201.128-.064.234-.064.35-.117.743-.32 1.486-.607 2.239-.863 3.161 8.31 6.315 16.619 9.462 24.928l-1.06 2.81-2.727-1.235-10.884-24.331c.736-.34 1.478-.66 2.228-.958v-.032zm9.388-2.745c1.061 2.937 2.122 5.864 3.268 8.76a2.128 2.128 0 002.005 1.432 2.116 2.116 0 002.005-1.432 263.242 263.242 0 003.278-8.803c.816.107 1.623.234 2.429.394l-.053.085c-2.546 6.734-5.1 13.475-7.66 20.223l-7.67-20.223c.796-.138 1.592-.287 2.398-.404v-.032zM65.58 12.72c.7.447 1.379.915 2.047 1.405a243.46 243.46 0 00-4 8.813 2.135 2.135 0 00.402 2.45 2.12 2.12 0 002.442.402 249.65 249.65 0 008.635-3.948c.467.67.912 1.351 1.347 2.054l-.159.053-19.657 8.845 8.826-19.712c.045-.108.084-.218.117-.33v-.032zm12.815 14.827a43.31 43.31 0 012.121 5.247h-.074L55.66 42.289l-2.79-1.064 1.22-2.736 24.303-10.941zm3.85 11.612c-2.991 1.064-5.962 2.129-8.9 3.342a2.123 2.123 0 00-1.428 2.012 2.134 2.134 0 001.428 2.011 254.556 254.556 0 008.9 3.343 36.771 36.771 0 01-.488 2.395l-.127-.054-20.156-7.695 20.156-7.696h.117c.212.777.35 1.576.498 2.374v-.032zm-3.85 22.352L54.09 50.581c-.403-.916-.817-1.83-1.22-2.736l2.79-1.064 24.866 9.494a50.418 50.418 0 01-2.132 5.237zM66.47 63.268a2.116 2.116 0 00-2.442.402 2.132 2.132 0 00-.401 2.45 259.13 259.13 0 003.893 8.58 37.9 37.9 0 01-2.016 1.405.607.607 0 010-.128c-2.949-6.57-5.89-13.142-8.826-19.712l19.657 8.845h.117a32.735 32.735 0 01-1.379 2.043 443.926 443.926 0 00-8.603-3.885zM44.256 46.132l-.605-.266-.276-.607-.265-.713.265-.713.276-.607.605-.277.71-.266.711.266.605.277.265.607c.096.234.18.479.276.713-.095.234-.18.479-.276.713l-.265.607-.605.266-.71.276-.711-.276zm17.748-35.37c0 .085-.096.15-.138.245-3.628 8.118-7.264 16.243-10.906 24.374l-2.715 1.235-1.061-2.81a17968.31 17968.31 0 009.462-24.949c.023-.059.04-.12.053-.18a37.478 37.478 0 015.305 2.085zM9.354 56.275l24.866-9.494 2.79 1.064c-.403.905-.806 1.82-1.22 2.736L11.497 61.512h-.063a47.53 47.53 0 01-2.08-5.237zM24.408 76.18a40.275 40.275 0 01-2.058-1.362 237.114 237.114 0 003.946-8.696 2.135 2.135 0 00-.401-2.45 2.119 2.119 0 00-2.442-.403 254.717 254.717 0 00-8.667 3.97 38.285 38.285 0 01-1.347-2.064l.19-.064 19.658-8.845-8.816 19.712a1.137 1.137 0 00-.063.202zm3.607 1.98v-.075A12696.29 12696.29 0 0038.92 53.71l2.726-1.235c.35.937.71 1.874 1.061 2.8a40226.23 40226.23 0 01-9.463 24.949.712.712 0 010 .074 45.628 45.628 0 01-5.23-2.14zm9.229 3.289a.511.511 0 010-.107l7.67-20.223c2.56 6.741 5.113 13.482 7.659 20.223l.095.181c-.795.181-1.602.33-2.418.458-1.061-3.012-2.122-5.992-3.331-8.962a2.128 2.128 0 00-2.005-1.433 2.116 2.116 0 00-2.005 1.433 273.352 273.352 0 00-3.331 8.92l-1.061-.192c-.382-.075-.828-.192-1.273-.298z" stroke="#fff" stroke-miterlimit="10"/></svg>
